static/img/svg/bx-train.svg

<svg xmlns="http://www.w3.org/2000/svg" width="24" height="24"><path fill="none" d="M16.336 3.999L7.625 4c-.001.001-.462.039-.989.653-.564.657-.628 1.249-.634 1.347H18c-.001-.025-.022-.661-.623-1.335-.55-.617-1.022-.664-1.041-.666zM6 18h12v-4H6v4zm9-3h2v1.991h-2V15zm-8 0h2v1.991H7V15zM6 8h12v4H6z"/><path d="M7 15h2v1.991H7zM15 15h2v1.991h-2z"/><path d="M20 19V6c.001-.188-.032-1.434-1.129-2.665C17.715 2.037 16.509 2 16.375 2H7.621c-.224 0-1.399.065-2.503 1.351C4.031 4.616 4 5.862 4 6v13a1 1 0 0 0 1 1h2l-2 2h14l-2-2h2a1 1 0 0 0 1-1zm-2-1H6v-4h12v4zm0-6H6V8h12v4zM6.002 6c.006-.098.07-.69.634-1.347.527-.614.988-.652.989-.653l8.711-.001c.02.002.491.049 1.041.666.601.674.622 1.31.623 1.335H6.002z"/></svg>

<svg xmlns="http://www.w3.org/2000/svg" width="24" height="24" viewBox="0 0 24 24"><path fill="none" d="M6 18h12v-4H6V18zM15 15h2v1.991h-2V15zM7 15h2v1.991H7V15zM6 8H18V12H6zM16.336 4H7.625C7.624 4 7.163 4.039 6.636 4.653 6.072 5.31 6.008 5.902 6.002 6H18c-.001-.025-.022-.66-.623-1.334C16.827 4.049 16.355 4 16.336 4z"/><path d="M7 15H9V16.991H7zM15 15H17V16.991H15z"/><path d="M18.871,3.335C17.715,2.037,16.509,2,16.375,2H7.621C7.397,2,6.222,2.065,5.118,3.351C4.031,4.616,4,5.862,4,6v2v11 c0,0.553,0.447,1,1,1h2l-2,2h14l-2-2h2c0.553,0,1-0.447,1-1v-5v-2V8V6.019V6C20.001,5.813,19.968,4.566,18.871,3.335z M18,18H6v-4 h12V18z M18,12H6V8h12V12z M6.002,6c0.006-0.098,0.07-0.69,0.634-1.347C7.163,4.039,7.624,4.001,7.625,4l8.711-0.001 c0.02,0.002,0.491,0.049,1.041,0.666C17.978,5.339,17.999,5.975,18,6H6.002z"/></svg>
